next/src/assets/icons/info.svg

<svg xmlns="http://www.w3.org/2000/svg" width="24" height="24" fill="none" viewBox="0 0 24 24">
  <g clip-path="url(#a)">
    <path fill="currentColor" fill-rule="evenodd" d="M12 23.13C5.86 23.13.87 18.14.87 12 .87 5.86 5.86.87 12 .87 18.14.87 23.13 5.86 23.13 12c0 6.14-4.99 11.13-11.13 11.13Zm0-20.75C6.69 2.37 2.37 6.69 2.37 12s4.32 9.63 9.63 9.63c5.31 0 9.63-4.32 9.63-9.63 0-5.31-4.32-9.63-9.63-9.63v.01Zm0 6.23c-.62 0-1.13-.51-1.13-1.13 0-.62.51-1.13 1.13-1.13.62 0 1.13.51 1.13 1.13 0 .62-.51 1.13-1.13 1.13Zm-.75 1.65h1.5v6.64h-1.5v-6.64Z" clip-rule="evenodd"/>
  </g>
  <defs>
    <clipPath id="a">
      <path fill="#fff" d="M0 0h24v24H0z"/>
    </clipPath>
  </defs>
</svg>

<svg width="24" height="24" viewBox="0 0 24 24" fill="none" xmlns="http://www.w3.org/2000/svg">
<g clip-path="url(#clip0_48_188)">
<path fill-rule="evenodd" clip-rule="evenodd" d="M12 23.13C5.86 23.13 0.869995 18.14 0.869995 12C0.869995 5.86 5.86 0.87 12 0.87C18.14 0.87 23.13 5.86 23.13 12C23.13 18.14 18.14 23.13 12 23.13ZM12 2.38C6.69 2.37 2.37 6.69 2.37 12C2.37 17.31 6.69 21.63 12 21.63C17.31 21.63 21.63 17.31 21.63 12C21.63 6.69 17.31 2.37 12 2.37V2.38ZM12 8.61C11.38 8.61 10.87 8.1 10.87 7.48C10.87 6.86 11.38 6.35 12 6.35C12.62 6.35 13.13 6.86 13.13 7.48C13.13 8.1 12.62 8.61 12 8.61ZM11.25 10.76C11.25 10.4839 11.4739 10.26 11.75 10.26H12.25C12.5261 10.26 12.75 10.4839 12.75 10.76V16.4C12.75 16.6761 12.5261 16.9 12.25 16.9H11.75C11.4739 16.9 11.25 16.6761 11.25 16.4V10.76Z" fill="currentColor"/>
</g>
<defs>
<clipPath id="clip0_48_188">
<rect width="24" height="24" fill="white"/>
</clipPath>
</defs>
</svg>
